X:9
%%newpage
T:L'avertissement à Mickey
C:                           % composer
O:Ecosse                           % origin.
Z:Transcrit et/ou corrigé par Michel BELLON - 2006-06-20
Z:Pour toute observation mailto:galouvielle@free.fr
M:3/4                           % meter
L:1/4                        % length of shortest note
Q:1/4=180                           % tempo
K:Em                           % key
V:1                          % voice 1
"Em"B2B | "D"A>GF | "Em"GE2- | E2E | "C"Eee | e>dc | "D"d3- | d2c |
"Em"Be>e | ege | "G"dB2- | B2G/A/ | "Em"BcB | "D"A/G/GF | "C"E3- | EGA |
"G"BBc | B2B | "Em"BEF | E3 | "C"E>ee | e/d/dc | "G"dB2- | B2A |
"Em"Gee | "D"f2e | "G"d/B/Bc | "Em"B2G/A/ | B>cB | "D"AGF | "C"GE2- | E3 |]

%%footer $D   Galouvielle-MBe 2006 \n-- (Ecosse)
